X: 24
T: Master Crowley's
Z: Rice Paddy
S: https://thesession.org/tunes/281#setting52699
R: reel
M: 4/4
L: 1/8
K: Ddor
|:A,D (3DDD A,DFD|ECA,C G,CEC|A,D (3DDD A,DFD|EGcG EDDC|
A,D (3DDD A,DFD|ECA,C G,CEC|A,D (3DDD A,DFD|EGcG EDD2:|
|:Dafg efdf|ecgc acgc|Aafg efdB|cAGE EDD2|
Aafg efdf|ecgc acgc|DEFA cAGE|GEcE EDD2:|

